X:172
T:Schottische
M:4/4
L:1/8
K:GDor
"Gmi"GA Bc d2d2|"C"dece "Gmi"d2B2|"Gmi"BAcA B2GB|"D"AG^FA "Gmi"G2:|
K:GMaj
"G"B2G2G2 AG|"D"F2D2D3D|"C"CB,A,B, CDEG|"D"F2D2 D2dc|
"G"B2G2G2 AG|"D"F2D2D3D|"C"CB,A,B, "D"CDEF|"G"G2"D"D2"G"G4||:
K:DMin
"Dmi"d2 d2 "Ami"c3 B|"Dmi"AG AB AF DE|F2 F2 "Gmi"GA BG|"A7"A2 A2 A4|
"Dmi"d2 d2 "Ami"c3 B|"Dmi"AG AB AF DE|F2 F2 "A7"ED ^CE|"Dmi"D2 D2 D4:|
